svg/SJJB-OpenStreetMapIcons/amenity/library2.svg

<?xml version="1.0" encoding="UTF-8" standalone="no"?>
<!-- Created with Inkscape (http://www.inkscape.org/) -->

<svg
   xmlns:dc="http://purl.org/dc/elements/1.1/"
   xmlns:cc="http://creativecommons.org/ns#"
   xmlns:rdf="http://www.w3.org/1999/02/22-rdf-syntax-ns#"
   xmlns:svg="http://www.w3.org/2000/svg"
   xmlns="http://www.w3.org/2000/svg"
   xmlns:xlink="http://www.w3.org/1999/xlink"
   xmlns:sodipodi="http://sodipodi.sourceforge.net/DTD/sodipodi-0.dtd"
   xmlns:inkscape="http://www.inkscape.org/namespaces/inkscape"
   version="1.0"
   width="580"
   height="580"
   id="svg2"
   sodipodi:version="0.32"
   inkscape:version="0.48.0 r9654"
   sodipodi:docname="amenity_library2.svg"
   inkscape:output_extension="org.inkscape.output.svg.inkscape">
  <metadata
     id="metadata2975">
    <rdf:RDF>
      <cc:Work
         rdf:about="">
        <dc:format>image/svg+xml</dc:format>
        <dc:type
           rdf:resource="http://purl.org/dc/dcmitype/StillImage" />
        <cc:license
           rdf:resource="http://web.resource.org/cc/PublicDomain" />
        <dc:language>en</dc:language>
        <dc:title></dc:title>
      </cc:Work>
    </rdf:RDF>
  </metadata>
  <sodipodi:namedview
     inkscape:window-height="1002"
     inkscape:window-width="1278"
     inkscape:pageshadow="2"
     inkscape:pageopacity="0.0"
     guidetolerance="10.0"
     gridtolerance="10.0"
     objecttolerance="10.0"
     borderopacity="1.0"
     bordercolor="#666666"
     pagecolor="#ffffff"
     id="base"
     inkscape:zoom="0.9216771"
     inkscape:cx="196.664"
     inkscape:cy="179.42334"
     inkscape:window-x="0"
     inkscape:window-y="24"
     inkscape:current-layer="svg2"
     showgrid="false"
     inkscape:window-maximized="0"
     showguides="true"
     inkscape:guide-bbox="true" />
  <defs
     id="defs4">
    <inkscape:perspective
       sodipodi:type="inkscape:persp3d"
       inkscape:vp_x="0 : 290 : 1"
       inkscape:vp_y="6.1230318e-14 : 1000 : 0"
       inkscape:vp_z="580 : 290 : 1"
       inkscape:persp3d-origin="290 : 193.33333 : 1"
       id="perspective2441" />
    <inkscape:perspective
       id="perspective3452"
       inkscape:persp3d-origin="30 : 20 : 1"
       inkscape:vp_z="60 : 30 : 1"
       inkscape:vp_y="0 : 1000 : 0"
       inkscape:vp_x="0 : 30 : 1"
       sodipodi:type="inkscape:persp3d" />
    <symbol
       viewBox="244.5 110 489 219.9"
       id="symbol-university">
      <path
         id="path4460"
         d="M79,43l57,119c0,0,21-96,104-96s124,106,124,106l43-133l82-17L0,17L79,43z" />
      <path
         id="path4462"
         d="M94,176l-21,39"
         stroke-width="20"
         stroke="#000000"
         fill="none" />
      <path
         id="path4464"
         d="M300,19c0,10.5-22.6,19-50.5,19S199,29.5,199,19s22.6-19,50.5-19S300,8.5,300,19z" />
      <path
         id="path4466"
         d="M112,216l-16-38L64,88c0,0-9-8-4-35s16-24,16-24"
         stroke-width="20"
         stroke="#000000"
         ill="none" />
    </symbol>
    <inkscape:perspective
       id="perspective4471"
       inkscape:persp3d-origin="372.04724 : 350.78739 : 1"
       inkscape:vp_z="744.09448 : 526.18109 : 1"
       inkscape:vp_y="0 : 1000 : 0"
       inkscape:vp_x="0 : 526.18109 : 1"
       sodipodi:type="inkscape:persp3d" />
    <inkscape:perspective
       id="perspective4668"
       inkscape:persp3d-origin="6 : 4 : 1"
       inkscape:vp_z="12 : 6 : 1"
       inkscape:vp_y="0 : 1000 : 0"
       inkscape:vp_x="0 : 6 : 1"
       sodipodi:type="inkscape:persp3d" />
    <inkscape:perspective
       id="perspective3826"
       inkscape:persp3d-origin="0.5 : 0.33333333 : 1"
       inkscape:vp_z="1 : 0.5 : 1"
       inkscape:vp_y="0 : 1000 : 0"
       inkscape:vp_x="0 : 0.5 : 1"
       sodipodi:type="inkscape:persp3d" />
    <inkscape:perspective
       id="perspective3855"
       inkscape:persp3d-origin="0.5 : 0.33333333 : 1"
       inkscape:vp_z="1 : 0.5 : 1"
       inkscape:vp_y="0 : 1000 : 0"
       inkscape:vp_x="0 : 0.5 : 1"
       sodipodi:type="inkscape:persp3d" />
    <inkscape:perspective
       id="perspective3909"
       inkscape:persp3d-origin="0.5 : 0.33333333 : 1"
       inkscape:vp_z="1 : 0.5 : 1"
       inkscape:vp_y="0 : 1000 : 0"
       inkscape:vp_x="0 : 0.5 : 1"
       sodipodi:type="inkscape:persp3d" />
    <inkscape:perspective
       id="perspective3950"
       inkscape:persp3d-origin="0.5 : 0.33333333 : 1"
       inkscape:vp_z="1 : 0.5 : 1"
       inkscape:vp_y="0 : 1000 : 0"
       inkscape:vp_x="0 : 0.5 : 1"
       sodipodi:type="inkscape:persp3d" />
    <inkscape:perspective
       id="perspective3972"
       inkscape:persp3d-origin="0.5 : 0.33333333 : 1"
       inkscape:vp_z="1 : 0.5 : 1"
       inkscape:vp_y="0 : 1000 : 0"
       inkscape:vp_x="0 : 0.5 : 1"
       sodipodi:type="inkscape:persp3d" />
    <inkscape:perspective
       id="perspective3994"
       inkscape:persp3d-origin="0.5 : 0.33333333 : 1"
       inkscape:vp_z="1 : 0.5 : 1"
       inkscape:vp_y="0 : 1000 : 0"
       inkscape:vp_x="0 : 0.5 : 1"
       sodipodi:type="inkscape:persp3d" />
    <inkscape:perspective
       id="perspective4016"
       inkscape:persp3d-origin="0.5 : 0.33333333 : 1"
       inkscape:vp_z="1 : 0.5 : 1"
       inkscape:vp_y="0 : 1000 : 0"
       inkscape:vp_x="0 : 0.5 : 1"
       sodipodi:type="inkscape:persp3d" />
    <inkscape:perspective
       id="perspective4837"
       inkscape:persp3d-origin="0.5 : 0.33333333 : 1"
       inkscape:vp_z="1 : 0.5 : 1"
       inkscape:vp_y="0 : 1000 : 0"
       inkscape:vp_x="0 : 0.5 : 1"
       sodipodi:type="inkscape:persp3d" />
    <inkscape:perspective
       id="perspective4971"
       inkscape:persp3d-origin="0.5 : 0.33333333 : 1"
       inkscape:vp_z="1 : 0.5 : 1"
       inkscape:vp_y="0 : 1000 : 0"
       inkscape:vp_x="0 : 0.5 : 1"
       sodipodi:type="inkscape:persp3d" />
    <inkscape:perspective
       id="perspective6216"
       inkscape:persp3d-origin="0.5 : 0.33333333 : 1"
       inkscape:vp_z="1 : 0.5 : 1"
       inkscape:vp_y="0 : 1000 : 0"
       inkscape:vp_x="0 : 0.5 : 1"
       sodipodi:type="inkscape:persp3d" />
    <inkscape:perspective
       id="perspective6764"
       inkscape:persp3d-origin="0.5 : 0.33333333 : 1"
       inkscape:vp_z="1 : 0.5 : 1"
       inkscape:vp_y="0 : 1000 : 0"
       inkscape:vp_x="0 : 0.5 : 1"
       sodipodi:type="inkscape:persp3d" />
    <inkscape:perspective
       id="perspective6817"
       inkscape:persp3d-origin="0.5 : 0.33333333 : 1"
       inkscape:vp_z="1 : 0.5 : 1"
       inkscape:vp_y="0 : 1000 : 0"
       inkscape:vp_x="0 : 0.5 : 1"
       sodipodi:type="inkscape:persp3d" />
    <radialGradient
       gradientUnits="userSpaceOnUse"
       gradientTransform="scale(0.79354273,1.2601716)"
       xlink:href="#linearGradient829"
       id="radialGradient874"
       cx="180.2453"
       cy="198.41902"
       r="101.58017"
       fx="180.2453"
       fy="198.41902" />
    <linearGradient
       id="linearGradient829">
      <stop
         style="stop-color: rgb(255, 255, 255); stop-opacity: 0.341667;"
         offset="0.0000000"
         id="stop830" />
      <stop
         style="stop-color: rgb(255, 255, 255); stop-opacity: 0;"
         offset="1.0000000"
         id="stop831" />
    </linearGradient>
    <radialGradient
       gradientUnits="userSpaceOnUse"
       gradientTransform="scale(1.007004,0.99304475)"
       xlink:href="#linearGradient829"
       id="radialGradient832"
       cx="360.85146"
       cy="167.47372"
       r="46.394721"
       fx="360.85146"
       fy="167.47372" />
    <linearGradient
       id="linearGradient6826">
      <stop
         style="stop-color: rgb(255, 255, 255); stop-opacity: 0.341667;"
         offset="0.0000000"
         id="stop6828" />
      <stop
         style="stop-color: rgb(255, 255, 255); stop-opacity: 0;"
         offset="1.0000000"
         id="stop6830" />
    </linearGradient>
    <linearGradient
       gradientUnits="userSpaceOnUse"
       gradientTransform="scale(0.74491357,1.3424376)"
       xlink:href="#linearGradient855"
       id="linearGradient850"
       x1="465.29425"
       y1="248.24467"
       x2="463.27056"
       y2="405.7687"
       spreadMethod="pad" />
    <linearGradient
       id="linearGradient855">
      <stop
         style="stop-color: rgb(255, 255, 255); stop-opacity: 0;"
         offset="0.0000000"
         id="stop856" />
      <stop
         style="stop-color: rgb(255, 166, 23); stop-opacity: 0.733333;"
         offset="1.0000000"
         id="stop857" />
    </linearGradient>
    <linearGradient
       gradientUnits="userSpaceOnUse"
       gradientTransform="scale(1.4586159,0.68558144)"
       xlink:href="#linearGradient855"
       id="linearGradient854"
       x1="157.80581"
       y1="120.96176"
       x2="155.40575"
       y2="231.63491" />
    <linearGradient
       id="linearGradient6837">
      <stop
         style="stop-color: rgb(255, 255, 255); stop-opacity: 0;"
         offset="0.0000000"
         id="stop6839" />
      <stop
         style="stop-color: rgb(255, 166, 23); stop-opacity: 0.733333;"
         offset="1.0000000"
         id="stop6841" />
    </linearGradient>
    <inkscape:perspective
       id="perspective6928"
       inkscape:persp3d-origin="0.5 : 0.33333333 : 1"
       inkscape:vp_z="1 : 0.5 : 1"
       inkscape:vp_y="0 : 1000 : 0"
       inkscape:vp_x="0 : 0.5 : 1"
       sodipodi:type="inkscape:persp3d" />
    <inkscape:perspective
       id="perspective10781"
       inkscape:persp3d-origin="0.5 : 0.33333333 : 1"
       inkscape:vp_z="1 : 0.5 : 1"
       inkscape:vp_y="0 : 1000 : 0"
       inkscape:vp_x="0 : 0.5 : 1"
       sodipodi:type="inkscape:persp3d" />
    <inkscape:perspective
       id="perspective10806"
       inkscape:persp3d-origin="0.5 : 0.33333333 : 1"
       inkscape:vp_z="1 : 0.5 : 1"
       inkscape:vp_y="0 : 1000 : 0"
       inkscape:vp_x="0 : 0.5 : 1"
       sodipodi:type="inkscape:persp3d" />
    <inkscape:perspective
       id="perspective10878"
       inkscape:persp3d-origin="0.5 : 0.33333333 : 1"
       inkscape:vp_z="1 : 0.5 : 1"
       inkscape:vp_y="0 : 1000 : 0"
       inkscape:vp_x="0 : 0.5 : 1"
       sodipodi:type="inkscape:persp3d" />
    <inkscape:perspective
       id="perspective10919"
       inkscape:persp3d-origin="0.5 : 0.33333333 : 1"
       inkscape:vp_z="1 : 0.5 : 1"
       inkscape:vp_y="0 : 1000 : 0"
       inkscape:vp_x="0 : 0.5 : 1"
       sodipodi:type="inkscape:persp3d" />
    <clipPath
       id="clipoutline2"
       clipPathUnits="userSpaceOnUse">
      <path
         inkscape:connector-curvature="0"
         d="m 55.8,12 0.76,0.16 c 8.84,-2.94 28.68,8.64 24.26,18.96 -1.12,1.62 -0.93,4.5 0.42,6.31 L 56.43,62.25 c -1.39,-1.39 -4.48,-1.36 -5.9,0 L 9.5,101.63 c -3.74,3.59 -0.8,6.64 0.78,8.25 l 7.36,7.36 c 1.61,1.6 5.86,3.76 8.88,0.56 L 65.24,76.99 c 1.35,-1.42 1.36,-4.47 0,-5.87 0,0 0.01,-0.02 0,-0.02 L 90.15,46.2 c 2.63,2.37 5.113827,2.574854 7.47,1.93 4.55057,-1.245432 7.08725,3.206643 9.81,6.46 l -1.23,1.21 c -1.82,1.84 -1.65,4.94 0.39,6.98 2.04,2.04 5.15,2.21 6.97,0.39 l 8.14,-8.13 c 1.82,-1.84 1.65,-4.94 -0.4,-6.97 -1.84,-1.85 -4.51,-2.09 -6.37,-0.77 -5.58,-6.26 -2.65,-7.2 -10.01,-15.35 L 91.13,17.86 C 81.2,8.12 68.3,8.13 55.8,12 z"
         id="outline2" />
    </clipPath>
  </defs>
  <g
     id="g1327">
    <path
       d="M 66.275,1.768 C 24.94,1.768 1.704,23.139 1.704,66.804 L 1.704,516.927 C 1.704,557.771 22.599,579.156 63.896,579.156 L 515.92,579.156 C 557.227,579.156 578.149,558.841 578.149,516.927 L 578.149,66.804 C 578.149,24.203 557.227,1.768 514.628,1.768 C 514.624,1.768 66.133,1.625 66.275,1.768 z "
       style="fill:#111;stroke:#eee;stroke-width:3.40799999"
       id="path1329" />
  </g>
  <g
     id="layer3"
     inkscape:label="Layout"
     style="display:none;stroke:#757575;stroke-opacity:1"
     transform="matrix(48.14969,0,0,48.14969,-536.27327,-33.306752)">
    <rect
       style="fill:none;stroke:#757575;stroke-width:0.10000000000000001;stroke-miterlimit:4;stroke-dasharray:none;stroke-opacity:1;display:inline"
       id="rect4134"
       width="10"
       height="10"
       x="1"
       y="1" />
    <rect
       style="fill:none;stroke:#757575;stroke-width:0.10000000000000001;stroke-miterlimit:4;stroke-dasharray:none;stroke-opacity:1;display:inline"
       id="rect4136"
       width="8"
       height="8"
       x="2"
       y="2" />
  </g>
  <g
     id="g3338"
     transform="matrix(1.3973279,-0.2437849,0.2437849,1.3973279,-185.07402,-56.183307)" />
  <circle
     style="fill:#ffffff"
     sodipodi:ry="1.086"
     sodipodi:rx="1.086"
     sodipodi:cy="197.46899"
     sodipodi:cx="23.316"
     transform="matrix(67.641957,0,0,67.641957,-1282.0203,-13246.677)"
     cx="23.316"
     cy="197.46899"
     r="1.086"
     id="circle2193" />
  <path
     style="fill:#ffffff"
     inkscape:connector-curvature="0"
     d="m 366.48188,201.8298 c 33.61805,1.21755 47.68758,28.07141 47.68758,28.07141 l 108.43006,148.60938 c 4.46437,6.69655 7.1024,14.6783 7.1024,23.40412 0,23.13354 -18.73682,41.87037 -41.87037,41.87037 -5.479,0 -10.55214,-1.21756 -15.42236,-3.04389 L 406.99941,422.5455 v 65.27449 H 180.06065 V 422.5455 l -65.40977,18.19569 c -4.6673,1.82633 -9.87573,3.04389 -15.422372,3.04389 -23.133549,0 -41.870371,-18.73683 -41.870371,-41.87037 0,-8.72582 2.638036,-16.70757 7.237689,-23.40412 L 172.8906,229.90121 c 0,0 14.27245,-26.85386 47.68758,-28.07141 h 145.9037 z m -72.91803,240.39951 0,0 84.75537,-28.07141 -1.89397,-0.40585 c -58.37501,-17.18106 -35.71495,-94.42817 22.66006,-77.24712 l 7.98175,2.77332 v -87.19048 l -113.50321,37.06779 -113.5032,-37.06779 v 87.19048 l 7.98175,-2.77332 c 58.37501,-17.2487 81.23799,60.06606 22.66006,77.24712 l -1.89398,0.40585 84.75537,28.07141 0,0 z"
     id="path2195" />
  <path
     style="fill:#ffffff"
     inkscape:connector-curvature="0"
     d="m 526.79332,539.22788 c 5.81721,0 10.41686,-4.59965 10.41686,-10.41686 l 0,0 c 0,-5.81721 -4.59965,-10.41686 -10.41686,-10.41686 H 68.586702 c -5.614283,0 -10.416862,4.59965 -10.416862,10.41686 l 0,0 c 0,5.81721 4.802579,10.41686 10.416862,10.41686 H 526.79332 z"
     id="path2197" />
  <path
     id="path17688"
     d="m 366.48188,201.8298 c 33.61805,1.21755 47.68758,28.07141 47.68758,28.07141 l 108.43006,148.60938 c 4.46437,6.69655 7.1024,14.6783 7.1024,23.40412 0,23.13354 -18.73682,41.87037 -41.87037,41.87037 -5.479,0 -10.55214,-1.21756 -15.42236,-3.04389 l -65.40978,-18.19569 0,65.27449 -226.93876,0 0,-65.27449 -65.40977,18.19569 c -4.6673,1.82633 -9.87573,3.04389 -15.422372,3.04389 -23.133549,0 -41.870371,-18.73683 -41.870371,-41.87037 0,-8.72582 2.638036,-16.70757 7.237689,-23.40412 L 172.8906,229.90121 c 0,0 14.27245,-26.85386 47.68758,-28.07141 z"
     inkscape:connector-curvature="0"
     style="fill:#ffffff;opacity:0.01"
     sodipodi:nodetypes="cccssccccccsscccc" />
</svg>

<svg xmlns="http://www.w3.org/2000/svg" viewBox="0 0 580 580"><defs><clipPath><path d="m55.8 12l.76.16c8.84-2.94 28.68 8.64 24.26 18.96-1.12 1.62-.93 4.5.42 6.31l-24.81 24.82c-1.39-1.39-4.48-1.36-5.9 0l-41.03 39.38c-3.74 3.59-.8 6.64.78 8.25l7.36 7.36c1.61 1.6 5.86 3.76 8.88.56l38.72-40.81c1.35-1.42 1.36-4.47 0-5.87 0 0 .001-.02 0-.02l24.91-24.9c2.63 2.37 5.114 2.575 7.47 1.93 4.551-1.245 7.087 3.207 9.81 6.46l-1.23 1.21c-1.82 1.84-1.65 4.94.39 6.98 2.04 2.04 5.15 2.21 6.97.39l8.14-8.13c1.82-1.84 1.65-4.94-.4-6.97-1.84-1.85-4.51-2.09-6.37-.77-5.58-6.26-2.65-7.2-10.01-15.35l-13.79-14.09c-9.93-9.74-22.83-9.73-35.33-5.86"/></clipPath></defs><path d="m66.28 1.768c-41.34 0-64.57 21.371-64.57 65.04v450.12c0 40.844 20.895 62.23 62.19 62.23h452.02c41.31 0 62.23-20.315 62.23-62.23v-450.12c0-42.601-20.922-65.04-63.52-65.04-.004 0-448.5-.143-448.35 0z" fill="#111" stroke="#eee" stroke-width="3.408"/><g fill="#fff"><circle transform="matrix(67.642 0 0 67.642-1282.02-13246.68)" cx="23.316" cy="197.47" r="1.086"/><path d="m366.48 201.83c33.618 1.218 47.688 28.07 47.688 28.07l108.43 148.61c4.464 6.697 7.102 14.678 7.102 23.404 0 23.13-18.737 41.87-41.87 41.87-5.479 0-10.552-1.218-15.422-3.044l-65.41-18.2v65.27h-226.94v-65.27l-65.41 18.2c-4.667 1.826-9.876 3.044-15.422 3.044-23.13 0-41.87-18.737-41.87-41.87 0-8.726 2.638-16.708 7.238-23.404l108.29-148.61c0 0 14.272-26.854 47.688-28.07h145.9m-72.918 240.4l84.76-28.07-1.894-.406c-58.38-17.18-35.715-94.43 22.66-77.25l7.982 2.773v-87.19l-113.5 37.07-113.5-37.07v87.19l7.982-2.773c58.38-17.249 81.24 60.07 22.66 77.25l-1.894.406 84.76 28.07"/><path d="m526.79 539.23c5.817 0 10.417-4.6 10.417-10.417 0-5.817-4.6-10.417-10.417-10.417h-458.21c-5.614 0-10.417 4.6-10.417 10.417 0 5.817 4.803 10.417 10.417 10.417h458.21"/><path d="m366.48 201.83c33.618 1.218 47.688 28.07 47.688 28.07l108.43 148.61c4.464 6.697 7.102 14.678 7.102 23.404 0 23.13-18.737 41.87-41.87 41.87-5.479 0-10.552-1.218-15.422-3.044l-65.41-18.2v65.27h-226.94v-65.27l-65.41 18.2c-4.667 1.826-9.876 3.044-15.422 3.044-23.13 0-41.87-18.737-41.87-41.87 0-8.726 2.638-16.708 7.238-23.404l108.29-148.61c0 0 14.272-26.854 47.688-28.07z" opacity=".001"/></g></svg>
